Adwaita++/actions/22/zoom-out-x.svg

<svg height="22" viewBox="0 0 22 22" width="22" xmlns="http://www.w3.org/2000/svg">
  <path d="m3.2226562 2c-.6698599 0-1.21875.5248-1.21875 1.1875v3.8125h2v-3h3v-2zm4.7773438 0v6h6v-6zm-3 6-3 3 3 3v-2h3v-2h-3zm7.003906 1v3h-2.9999998v2h3.7812498c.66986 0 1.21875-.5248 1.21875-1.1875v-3.8125z" fill="#444" transform="translate(3 3)"/>
</svg>

<svg xmlns="http://www.w3.org/2000/svg" width="22" height="22" viewBox="0 0 22 22">
 <defs>
  <style id="current-color-scheme" type="text/css">
   .ColorScheme-Text { color:#444444; } .ColorScheme-Highlight { color:#4285f4; }
  </style>
 </defs>
 <path style="fill:currentColor" class="ColorScheme-Text" d="M 3.2226562 2 C 2.5527963 2 2.0039062 2.5248 2.0039062 3.1875 L 2.0039062 7 L 4.0039062 7 L 4.0039062 4 L 7.0039062 4 L 7.0039062 2 L 3.2226562 2 z M 8 2 L 8 8 L 14 8 L 14 2 L 8 2 z M 5 8 L 2 11 L 5 14 L 5 12 L 8 12 L 8 10 L 5 10 L 5 8 z M 12.003906 9 L 12.003906 12 L 9.0039062 12 L 9.0039062 14 L 12.785156 14 C 13.455016 14 14.003906 13.4752 14.003906 12.8125 L 14.003906 9 L 12.003906 9 z" transform="translate(3 3)"/>
</svg>
